X:4
T:Polska. Nu är det jul igen. 
R:Vals
O:Kalvetorp, Östergötland
B:Ög 10
C:
S:Gustav Andersson
N:Smus Ög 10 bild 5
M:3/4
L:1/16
K:D
d3c d2A2 F2A2 | (de)dc d2A2 F2A2 | d2df e2eg f2a2 | a2ga b2bg a4 :|: 
b2g2 gfgb b2g2 |agfe dcde a2f2 | gfed cdef g2f2 | dcBc dedA FGFE | D2g2 gfgb b2g2 |
bgfe dAdf a2f2 | gfed cdef gfge | dcBc c2d2 d4 :|

